src/assets/media/svg/sprite/hide.svg

<svg width="24" height="24" viewBox="0 0 24 24" fill="none" xmlns="http://www.w3.org/2000/svg">
<path d="M23.7862 0.213819C23.6464 0.0767667 23.4584 0 23.2626 0C23.0668 0 22.8788 0.0767667 22.739 0.213819L16.9046 6.01077C15.3896 5.26962 13.7291 4.87365 12.0427 4.85138C5.31075 4.88878 0.598395 11.4711 0.411396 11.7329L0.112199 12.1817L0.411396 12.5931C1.81786 14.494 3.55313 16.128 5.53515 17.4177L0.299197 22.6536C0.213464 22.7179 0.142549 22.7999 0.0912528 22.894C0.0399571 22.9881 0.0094788 23.0921 0.00188187 23.199C-0.00571506 23.3059 0.00974673 23.4132 0.0472203 23.5136C0.0846938 23.614 0.143304 23.7051 0.219082 23.7809C0.29486 23.8567 0.386037 23.9153 0.486438 23.9528C0.586839 23.9903 0.694121 24.0057 0.801018 23.9981C0.907915 23.9905 1.01193 23.96 1.10602 23.9087C1.20012 23.8575 1.28209 23.7865 1.34639 23.7008L23.7862 1.26101C23.9232 1.12119 24 0.933204 24 0.737414C24 0.541625 23.9232 0.353641 23.7862 0.213819ZM7.55473 11.9947C7.55473 10.8044 8.02757 9.6629 8.86922 8.82125C9.71088 7.97959 10.8524 7.50675 12.0427 7.50675C12.9675 7.50625 13.8694 7.79383 14.6233 8.32954L8.37752 14.5753C7.84181 13.8215 7.55422 12.9195 7.55473 11.9947ZM19.56 7.61895L16.381 10.7979C16.5884 11.5629 16.5895 12.3692 16.3842 13.1347C16.1788 13.9002 15.7744 14.5978 15.2121 15.1563C14.6498 15.7148 13.9495 16.1145 13.1826 16.3146C12.4157 16.5148 11.6095 16.5082 10.8459 16.2957L8.34012 18.8014C9.52646 19.237 10.779 19.4647 12.0427 19.4746C18.7746 19.4746 23.487 12.8923 23.674 12.5931L23.9732 12.1817L23.674 11.7703C22.5141 10.1919 21.1279 8.7931 19.56 7.61895Z" fill="black"/>
</svg>

<svg xmlns="http://www.w3.org/2000/svg" width="24" height="24" fill="none"><path fill="#000" d="M23.786.214a.75.75 0 0 0-1.047 0L16.905 6.01a11.4 11.4 0 0 0-4.862-1.16C5.31 4.89.598 11.471.41 11.733l-.299.449.3.411a19.8 19.8 0 0 0 5.123 4.825L.3 22.654A.748.748 0 1 0 1.346 23.7l22.44-22.44a.75.75 0 0 0 0-1.047M7.555 11.994a4.49 4.49 0 0 1 4.488-4.487 4.45 4.45 0 0 1 2.58.823l-6.245 6.245a4.45 4.45 0 0 1-.823-2.58M19.56 7.62l-3.179 3.179a4.488 4.488 0 0 1-5.535 5.498L8.34 18.8c1.186.436 2.439.664 3.703.674 6.732 0 11.444-6.583 11.631-6.882l.3-.411-.3-.412A20 20 0 0 0 19.56 7.62"/></svg>
